X: 3
T: Johnny Gorman's
M: 4/4
L: 1/8
R: barndance / schottische
K: G Major
|: GE |\
D2 G2 G2 BG | FGAB c2 cA | B2 GB A2 FG | A2 ^GA FAEA |
D2 GF GBAG | FGAB c2 BA | B2 GB A2 FA | G2 B2 G2 :|
|: Bc |\
d2 Bd gdBd | c2 Bd e2 dc | BGGB AFFG | A2 ^GA FAd^c |
d2 Bd gd B2 | cBcd e2 dc | B2 GB A2 FA | G2 G2 G2 :|
